X:305
T: Martinsgans
N: A0353
O: Europa, Mitteleuropa, Deutschland
N: Forster II. 1540 No. 7.
R: Romanze, Ballade, Lied
M: 4/1
L: 1/4
K: F
F8A4B4 | c4c4d4d4 | c16 |
c4c2c4BAG4 | F8c4c4 | d8c8 |
F2F2A2B2 | c4c4 | c2c2d4 | c4z2
c2 | c2c2c2c2 | c3BA4 | B2G2A4z2
A2c3B | A2F2G4 | F8 | A2A2B4 | c4z2c2 | d2B2c4 | z2
c2d2B2 | c4z2c2 | d2d2c4 | B2c3BA2 | G4F4 | z8
F4 | F8F4 | A8B4 | c8c4
c8c4 | d8f4 | e4d8 | c8 | d8 | e8 | f6
F2 | c3BA2G2 | c3BA2G2 | c3BA2G2 | c4f4 | e2dcd4
c2c2A2B2 | c4B2A2- | A2GFG4 | F8
f3ed2c2 | f3ed2c2 | d4c4 | c2c4c2 | c4
c4 | d4f4 | e4d4 | c4B2c2- | c2BAG2F2 | G4F4

@@@ Tune index: 305
